X:13
%%newpage
T:Road to Lisdoonvarna / Indian Point
T: ---------------------------------------------------
T: Road to Lisdoonvarna
M:6/8
L:1/8
Q:1/4=116
S:from The Ruffwater Fakebook
R:Jig
K:Em
D  | |  "Em"E2 B B2 A | B2 c d2 A | "D"F2 F FED | F2 G AGF | !
         "Em"E2 B B2 A | B2 c d2 d | "Em"cdc "D"B2 A | "Em"B2 E E2 :| !
|: "Em"e2 f gfe | "Bm"d2 B Bcd | "A"c2 A ABc | "Bm"d2 B B3 | !
   "Em"e2 f gfe | "Bm"d2 B Bcd | "A"cdc "Bm"B2 A | "Em"B2 E E3 :|]
%%text from The Ruffwater Fakebook
W:
W:
W:
